; generated by PrusaSlicer 2.8.1+MacOS-x64 on 2024-12-19 at 23:08:36 UTC


;
;
; 

; external perimeters extrusion width = 0.45mm
; perimeters extrusion width = 0.45mm
; infill extrusion width = 0.45mm
; solid infill extrusion width = 0.45mm
; top infill extrusion width = 0.40mm
; support material extrusion width = 0.35mm
; first layer extrusion width = 0.42mm

M73 P0 R21
M73 Q0 S22
M201 X1000 Y1000 Z200 E5000 ; sets maximum accelerations, mm/sec^2
M203 X200 Y200 Z12 E120 ; sets maximum feedrates, mm / sec
M204 S1250 T1250 ; sets acceleration (S) and retract acceleration (R), mm/sec^2
M205 X8.00 Y8.00 Z0.40 E4.50 ; sets the jerk limits, mm/sec
M205 S0 T0 ; sets the minimum extruding and travel feed rate, mm/sec

; printing object motor_crank_arm.stl id:0 copy 0
; stop printing object motor_crank_arm.stl id:0 copy 0

;TYPE:Custom
M862.3 P "MK3S" ; printer model check
M862.1 P0.4 ; nozzle diameter check
M115 U3.14.0 ; tell printer latest fw version
G90 ; use absolute coordinates
M83 ; extruder relative mode
M104 S215 ; set extruder temp
M140 S60 ; set bed temp
M190 S60 ; wait for bed temp
M109 S215 ; wait for extruder temp
G28 W ; home all without mesh bed level
G80 X85.3372 Y95.5219 W79.3459 H18.9562 ; mesh bed levelling

G1 Z0.2 F720
G1 Y-3 F1000 ; go outside print area
G92 E0
G1 X60 E9 F1000 ; intro line
G1 X100 E12.5 F1000 ; intro line

G92 E0
M221 S95

; Don't change E values below. Excessive value can damage the printer.
M907 E430 ; set extruder motor current
G21 ; set units to millimeters
G90 ; use absolute coordinates
M83 ; use relative distances for extrusion

M900 K0.05 ; Filament gcode LA 1.5
M900 K30 ; Filament gcode LA 1.0




M107
;LAYER_CHANGE
;Z:0.2
;HEIGHT:0.2
G1 E-.8 F2100
G1 Z.6 F720
G1 X87.948 Y99.428 F10800
G1 Z.2 F720
G1 E.8 F2100
M204 S800
;TYPE:Skirt/Brim
;WIDTH:0.42
G1 F1200
G1 X89.069 Y98.569 E.04428
G1 X89.562 Y98.284 E.01785
G1 X90.867 Y97.743 E.04429
G1 X91.42 Y97.595 E.01795
G1 X93.046 Y97.393 E.05137
G1 X155.415 Y95.713 E1.95625
G1 X157.191 Y95.925 E.05608
G1 X158.792 Y96.431 E.05265
G1 X160.042 Y97.071 E.04403
G1 X161.532 Y98.197 E.05856
G1 X162.657 Y99.453 E.05287
G1 X163.604 Y101.032 E.05773
G1 X164.014 Y102.048 E.03435
G1 X164.245 Y102.864 E.02659
G1 X164.463 Y104.239 E.04365
G1 X164.434 Y106.065 E.05726
G1 X164.099 Y107.681 E.05175
G1 X163.729 Y108.694 E.03381
G1 X163.35 Y109.466 E.02697
G1 X162.579 Y110.648 E.04425
G1 X161.339 Y111.976 E.05697
G1 X159.821 Y113.062 E.05852
G1 X158.157 Y113.809 E.05719
G1 X156.387 Y114.213 E.05692
G1 X155.05 Y114.289 E.04199
M73 Q0 S21
G1 X92.818 Y112.57 E1.95198
G1 X91.418 Y112.385 E.04428
M73 P1 R21
M73 Q1 S21
G1 X90.868 Y112.237 E.01786
G1 X89.563 Y111.697 E.04428
G1 X89.068 Y111.411 E.01792
G1 X87.947 Y110.551 E.0443
G1 X87.543 Y110.148 E.01789
G1 X86.683 Y109.028 E.04428
G1 X86.397 Y108.533 E.01792
G1 X85.856 Y107.228 E.04429
G1 X85.708 Y106.675 E.01795
G1 X85.524 Y105.275 E.04427
G1 X85.524 Y104.705 E.01787
G1 X85.708 Y103.305 E.04427
G1 X85.857 Y102.751 E.01799
G1 X86.398 Y101.447 E.04427
G1 X86.683 Y100.954 E.01785
G1 X87.543 Y99.833 E.0443
G1 X87.905 Y99.47 E.01607
M204 S1000
;WIPE_START
G1 F8640
G1 X87.948 Y99.428 E-.01388
G1 X89.069 Y98.569 E-.3261
G1 X89.562 Y98.284 E-.13149
G1 X90.867 Y97.743 E-.3262
G1 X90.877 Y97.74 E-.00233
;WIPE_END
G1 Z.6 F720
; printing object motor_crank_arm.stl id:0 copy 0
G1 X152.591 Y101.388 F10800
G1 Z.2 F720
G1 E.8 F2100
M204 S800
;TYPE:Perimeter
;WIDTH:0.419999
G1 F1200
G1 X152.676 Y101.3 E.00384
G1 X152.983 Y101.21 E.01003
G1 X157.432 Y101.21 E.1395
G1 X157.736 Y101.3 E.00994
G1 X157.911 Y101.479 E.00785
G1 X157.995 Y101.776 E.00968
G1 X157.995 Y108.223 E.20214
G1 X157.937 Y108.473 E.00805
G1 X157.736 Y108.699 E.00948
G1 X157.566 Y108.772 E.0058
G1 X154.606 Y108.789 E.09281
G1 X152.982 Y108.789 E.05092
G1 X152.767 Y108.747 E.00687
G1 X152.631 Y108.668 E.00493
G1 X152.486 Y108.496 E.00705
G1 X152.416 Y108.223 E.00884
G1 X152.416 Y101.776 E.20214
G1 X152.492 Y101.492 E.00922
G1 X152.55 Y101.431 E.00264
M204 S1000
G1 X152.55 Y101.431 F10800
G1 X152.842 Y101.673
M204 S800
;TYPE:External perimeter
G1 F1200
G1 X152.863 Y101.629 E.00153
G1 X152.983 Y101.587 E.00399
G1 X157.43 Y101.587 E.13943
G1 X157.57 Y101.65 E.00481
G1 X157.618 Y101.776 E.00423
G1 X157.618 Y108.223 E.20214
G1 X157.558 Y108.362 E.00475
G1 X157.429 Y108.412 E.00434
G1 X154.606 Y108.412 E.08851
G1 X152.982 Y108.412 E.05092
G1 X152.865 Y108.372 E.00388
G1 X152.793 Y108.223 E.00519
G1 X152.793 Y101.776 E.20214
G1 X152.816 Y101.727 E.0017
M204 S1000
;WIPE_START
G1 F8640
G1 X152.842 Y101.673 E-.01384
G1 X152.863 Y101.629 E-.01126
G1 X152.983 Y101.587 E-.02936
G1 X156.212 Y101.587 E-.74554
;WIPE_END
G1 Z.6 F720
G1 X96.092 Y103.643 F10800
G1 Z.2 F720
G1 E.8 F2100
M204 S800
;TYPE:Perimeter
G1 F1200
G1 X96.333 Y104.391 E.02464
G1 X96.376 Y105.141 E.02355
G1 X96.365 Y105.385 E.00766
G1 X96.204 Y106.075 E.02222
G1 X95.798 Y106.864 E.02782
G1 X95.26 Y107.464 E.02527
G1 X94.769 Y107.82 E.01902
G1 X94.135 Y108.108 E.02183
G1 X93.279 Y108.267 E.0273
G1 X93.145 Y108.273 E.00421
G1 X92.622 Y108.234 E.01644
G1 X92.012 Y108.086 E.01968
G1 X91.457 Y107.829 E.01918
G1 X90.768 Y107.295 E.02733
G1 X90.421 Y106.882 E.01691
G1 X89.997 Y106.042 E.0295
G1 X89.828 Y105.16 E.02816
G1 X89.858 Y104.525 E.01993
G1 X90.086 Y103.702 E.02678
G1 X90.421 Y103.106 E.02144
G1 X90.816 Y102.636 E.01925
G1 X91.504 Y102.171 E.02604
G1 X91.947 Y101.916 E.01603
G1 X92.416 Y101.78 E.01531
G1 X92.92 Y101.719 E.01592
G1 X93.633 Y101.753 E.02238
G1 X94.189 Y101.892 E.01797
G1 X94.983 Y102.302 E.02802
G1 X95.605 Y102.86 E.0262
G1 X96.071 Y103.58 E.02689
G1 X96.073 Y103.586 E.0002
M204 S1000
G1 X96.073 Y103.586 F10800
G1 X95.755 Y103.795
M204 S800
;TYPE:External perimeter
G1 F1200
G1 X95.972 Y104.499 E.0231
G1 X96 Y105.153 E.02052
G1 X95.998 Y105.3 E.00461
G1 X95.837 Y105.989 E.02219
G1 X95.467 Y106.683 E.02466
G1 X94.985 Y107.206 E.0223
G1 X94.613 Y107.476 E.01441
G1 X93.979 Y107.765 E.02185
G1 X93.174 Y107.897 E.02558
G1 X92.651 Y107.858 E.01644
G1 X92.105 Y107.721 E.01765
G1 X91.622 Y107.49 E.01679
G1 X91.003 Y107.001 E.02473
G1 X90.694 Y106.612 E.01558
G1 X90.337 Y105.878 E.02559
G1 X90.2 Y105.098 E.02483
G1 X90.234 Y104.552 E.01715
G1 X90.448 Y103.808 E.02427
G1 X90.745 Y103.299 E.01848
G1 X91.101 Y102.883 E.01717
G1 X92.059 Y102.276 E.03556
G1 X92.462 Y102.154 E.0132
G1 X92.966 Y102.093 E.01592
G1 X93.609 Y102.13 E.02019
G1 X94.131 Y102.272 E.01696
G1 X94.805 Y102.634 E.02399
G1 X95.346 Y103.135 E.02312
G1 X95.728 Y103.742 E.02249
M204 S1000
;WIPE_START
G1 F8640
G1 X95.755 Y103.795 E-.01373
G1 X95.972 Y104.499 E-.1701
G1 X96 Y105.153 E-.15115
G1 X95.998 Y105.3 E-.03395
G1 X95.837 Y105.989 E-.16338
G1 X95.467 Y106.683 E-.1816
G1 X95.214 Y106.957 E-.08609
;WIPE_END
G1 Z.6 F720
G1 X150.859 Y109.649 F10800
G1 Z.2 F720
G1 E.8 F2100
M204 S800
;TYPE:Perimeter
G1 F1200
G1 X150.675 Y109.613 E.00588
G1 X93.157 Y109.613 E1.80343
G1 X91.911 Y109.448 E.03941
M73 Q2 S21
G1 X90.797 Y108.987 E.0378
G1 X89.84 Y108.254 E.0378
G1 X89.106 Y107.298 E.03779
G1 X88.645 Y106.184 E.0378
G1 X88.488 Y104.99 E.03776
G1 X88.645 Y103.796 E.03776
G1 X89.106 Y102.683 E.03777
G1 X89.84 Y101.727 E.03779
G1 X90.797 Y100.994 E.0378
M73 P2 R21
G1 X91.911 Y100.532 E.03781
G1 X93.156 Y100.368 E.03937
G1 X150.699 Y100.368 E1.80422
G1 X150.781 Y100.362 E.00258
G1 X151.05 Y100.246 E.00919
G1 X151.689 Y99.765 E.02508
G1 X152.114 Y99.497 E.01575
G1 X152.607 Y99.248 E.01732
G1 X153.242 Y99.002 E.02135
G1 X153.874 Y98.831 E.02053
G1 X154.525 Y98.726 E.02068
G1 X155.194 Y98.691 E.021
G1 X156.027 Y98.744 E.02617
G1 X156.672 Y98.862 E.02056
G1 X157.234 Y99.025 E.01835
G1 X157.908 Y99.297 E.02279
G1 X158.438 Y99.578 E.01881
G1 X158.913 Y99.894 E.01789
G1 X159.4 Y100.284 E.01956
G1 X159.874 Y100.754 E.02093
G1 X160.3 Y101.277 E.02115
G1 X160.67 Y101.849 E.02136
G1 X161.046 Y102.613 E.0267
G1 X161.244 Y103.172 E.01859
G1 X161.41 Y103.857 E.0221
G1 X161.497 Y104.507 E.02056
G1 X161.518 Y104.914 E.01278
G1 X161.492 Y105.577 E.0208
G1 X161.399 Y106.224 E.02049
G1 X161.177 Y107.047 E.02673
G1 X160.951 Y107.617 E.01923
G1 X160.649 Y108.198 E.02053
G1 X160.362 Y108.643 E.0166
G1 X159.955 Y109.159 E.02061
G1 X159.495 Y109.633 E.02071
G1 X159.03 Y110.02 E.01897
G1 X158.219 Y110.544 E.03027
G1 X157.692 Y110.8 E.01837
G1 X157.055 Y111.033 E.02127
G1 X156.375 Y111.201 E.02196
G1 X155.716 Y111.29 E.02085
G1 X155.057 Y111.309 E.02067
G1 X154.399 Y111.259 E.02069
G1 X153.787 Y111.15 E.01949
G1 X153.275 Y111.009 E.01665
G1 X152.532 Y110.712 E.02509
G1 X151.922 Y110.384 E.02172
G1 X151.498 Y110.106 E.0159
G1 X150.912 Y109.673 E.02285
M204 S1000
G1 X150.912 Y109.673 F10800
G1 X150.735 Y110.011
M204 S800
;TYPE:External perimeter
G1 F1200
G1 X150.675 Y109.99 E.00199
G1 X93.132 Y109.99 E1.80422
G1 X91.812 Y109.816 E.04175
G1 X90.607 Y109.317 E.04089
G1 X89.571 Y108.523 E.04093
G1 X88.777 Y107.488 E.0409
G1 X88.277 Y106.283 E.04091
G1 X88.108 Y104.99 E.04089
G1 X88.277 Y103.697 E.04089
G1 X88.777 Y102.493 E.04088
G1 X89.571 Y101.458 E.0409
G1 X90.607 Y100.664 E.04093
G1 X91.812 Y100.164 E.04091
G1 X93.132 Y99.991 E.04174
G1 X150.699 Y99.991 E1.80497
G1 X150.726 Y99.989 E.00085
G1 X151.485 Y99.448 E.02922
G1 X151.941 Y99.162 E.01688
G1 X152.468 Y98.898 E.01848
G1 X153.14 Y98.639 E.02258
G1 X153.81 Y98.459 E.02175
G1 X154.5 Y98.35 E.0219
G1 X155.214 Y98.314 E.02242
G1 X156.091 Y98.372 E.02756
G1 X156.773 Y98.499 E.02175
G1 X157.372 Y98.674 E.01957
G1 X158.083 Y98.963 E.02406
G1 X158.642 Y99.261 E.01986
G1 X159.146 Y99.598 E.01901
G1 X159.663 Y100.014 E.02081
G1 X160.164 Y100.512 E.02215
G1 X160.614 Y101.067 E.0224
G1 X161.007 Y101.679 E.0228
G1 X161.399 Y102.482 E.02802
G1 X161.609 Y103.078 E.01981
G1 X161.783 Y103.803 E.02338
G1 X161.874 Y104.487 E.02164
G1 X161.896 Y104.911 E.01331
G1 X161.868 Y105.612 E.022
G1 X161.769 Y106.301 E.02182
G1 X161.535 Y107.166 E.0281
G1 X161.294 Y107.774 E.02051
G1 X160.976 Y108.387 E.02165
G1 X160.669 Y108.863 E.01776
G1 X160.239 Y109.408 E.02177
G1 X159.751 Y109.91 E.02195
G1 X159.211 Y110.36 E.02204
G1 X158.453 Y110.849 E.02828
G1 X157.891 Y111.128 E.01967
G1 X157.229 Y111.378 E.02219
G1 X156.514 Y111.562 E.02315
G1 X155.817 Y111.663 E.02208
G1 X155.118 Y111.691 E.02193
G1 X154.417 Y111.645 E.02203
G1 X153.76 Y111.533 E.0209
G1 X153.212 Y111.388 E.01777
G1 X152.561 Y111.147 E.02177
G1 X151.932 Y110.836 E.022
G1 X151.341 Y110.464 E.0219
G1 X150.792 Y110.03 E.02194
M204 S1000
;WIPE_START
G1 F8640
G1 X150.735 Y110.011 E-.01387
G1 X150.675 Y109.99 E-.01468
G1 X147.334 Y109.99 E-.77145
M73 Q3 S21
;WIPE_END
G1 Z.6 F720
G1 X160.445 Y101.799 F10800
G1 Z.2 F720
G1 E.8 F2100
M204 S800
;TYPE:Solid infill
;WIDTH:0.421576
G1 F1200
G1 X159.14 Y100.505 E.05786
G1 X158.651 Y100.12 E.0196
M73 P3 R21
G1 X158.231 Y99.849 E.01574
G1 X157.674 Y99.563 E.01971
G1 X160.628 Y102.517 E.13153
G1 X160.703 Y102.667 E.00528
G1 X160.898 Y103.19 E.01757
G1 X160.944 Y103.369 E.00582
G1 X156.835 Y99.259 E.18298
G1 X156.541 Y99.178 E.0096
G1 X156.149 Y99.11 E.01253
G1 X161.096 Y104.056 E.22025
G1 X161.165 Y104.661 E.01917
G1 X158.334 Y101.83 E.12606
G1 X158.316 Y101.589 E.00761
G1 X158.204 Y101.305 E.00961
G1 X158.102 Y101.169 E.00535
G1 X157.922 Y101.015 E.00746
G1 X157.73 Y100.92 E.00674
G1 X157.375 Y100.871 E.01128
G1 X155.554 Y99.05 E.08108
G1 X155.184 Y99.03 E.01167
G1 X155.009 Y99.04 E.00552
G1 X156.839 Y100.871 E.08151
G1 X156.304 Y100.871 E.01684
G1 X154.501 Y99.068 E.08028
G1 X154.044 Y99.146 E.0146
G1 X155.768 Y100.871 E.07679
G1 X155.233 Y100.871 E.01684
G1 X153.612 Y99.25 E.07218
G1 X153.203 Y99.376 E.01347
G1 X154.697 Y100.871 E.06655
G1 X154.162 Y100.871 E.01684
G1 X152.82 Y99.529 E.05976
G1 X152.457 Y99.702 E.01266
G1 X153.626 Y100.871 E.05205
G1 X153.091 Y100.871 E.01684
G1 X152.115 Y99.895 E.04346
G1 X151.789 Y100.104 E.01219
G1 X152.633 Y100.948 E.03758
G1 X152.492 Y101.013 E.00489
G1 X152.314 Y101.165 E.00737
G1 X151.484 Y100.335 E.03696
G1 X151.176 Y100.562 E.01205
G1 X152.123 Y101.509 E.04217
G1 X152.099 Y101.569 E.00203
G1 X152.077 Y101.767 E.00627
G1 X152.077 Y101.998 E.00727
G1 X150.774 Y100.696 E.058
G1 X150.25 Y100.707 E.0165
G1 X152.077 Y102.534 E.08135
G1 X152.077 Y103.069 E.01684
G1 X149.715 Y100.707 E.10517
G1 X149.179 Y100.707 E.01688
G1 X152.077 Y103.605 E.12904
G1 X152.077 Y104.14 E.01684
G1 X148.644 Y100.707 E.15286
G1 X148.108 Y100.707 E.01688
G1 X152.077 Y104.676 E.17673
G1 X152.077 Y105.211 E.01684
G1 X147.573 Y100.707 E.20055
G1 X147.037 Y100.707 E.01688
G1 X152.077 Y105.747 E.22442
G1 X152.077 Y106.282 E.01684
G1 X146.502 Y100.707 E.24824
G1 X145.966 Y100.707 E.01688
G1 X152.077 Y106.818 E.2721
G1 X152.077 Y107.353 E.01684
G1 X145.431 Y100.707 E.29593
G1 X144.895 Y100.707 E.01688
G1 X152.246 Y108.059 E.32734
M204 S1000
;WIPE_START
G1 F8640
G1 X149.796 Y105.609 E-.8
;WIPE_END
G1 Z.6 F720
G1 X158.165 Y102.196 F10800
G1 Z.2 F720
G1 E.8 F2100
M204 S800
G1 F1200
G1 X161.167 Y105.199 E.13369
G1 X161.132 Y105.699 E.01578
G1 X158.334 Y102.901 E.12459
G1 X158.334 Y103.437 E.01688
G1 X161.063 Y106.165 E.12149
G1 X160.949 Y106.587 E.01376
G1 X158.334 Y103.972 E.11644
G1 X158.334 Y104.508 E.01688
G1 X160.829 Y107.003 E.11109
G1 X160.677 Y107.386 E.01297
G1 X158.334 Y105.043 E.10433
G1 X158.334 Y105.579 E.01688
G1 X160.501 Y107.746 E.09649
G1 X160.313 Y108.093 E.01243
G1 X158.334 Y106.114 E.08812
G1 X158.334 Y106.65 E.01688
G1 X160.103 Y108.418 E.07875
G1 X159.869 Y108.72 E.01203
G1 X158.334 Y107.185 E.06835
G1 X158.334 Y107.721 E.01688
G1 X159.625 Y109.012 E.05748
G1 X159.361 Y109.283 E.01191
G1 X158.333 Y108.255 E.04577
G1 X158.328 Y108.336 E.00256
G1 X158.244 Y108.624 E.00945
G1 X158.211 Y108.668 E.00173
G1 X159.079 Y109.537 E.03867
G1 X158.787 Y109.78 E.01196
G1 X157.96 Y108.953 E.03682
G1 X157.652 Y109.102 E.01077
G1 X157.582 Y109.111 E.00222
G1 X158.462 Y109.99 E.03916
G1 X158.137 Y110.201 E.0122
G1 X157.065 Y109.128 E.04776
G1 X156.529 Y109.128 E.01688
G1 X157.783 Y110.382 E.05584
G1 X157.409 Y110.544 E.01283
G1 X155.994 Y109.128 E.06303
G1 X155.458 Y109.128 E.01688
G1 X157.02 Y110.691 E.06957
G1 X156.595 Y110.801 E.01382
G1 X154.923 Y109.128 E.07447
G1 X154.387 Y109.128 E.01688
G1 X156.15 Y110.891 E.0785
G1 X155.751 Y110.949 E.01269
G1 X155.675 Y110.952 E.00239
G1 X153.852 Y109.128 E.0812
G1 X153.316 Y109.128 E.01688
G1 X155.16 Y110.972 E.08211
G1 X154.59 Y110.938 E.01798
G1 X144.36 Y100.707 E.45553
G1 X143.824 Y100.707 E.01688
G1 X153.956 Y110.84 E.45117
G1 X153.428 Y110.704 E.01717
M73 Q4 S21
G1 X153.201 Y110.62 E.00762
G1 X143.289 Y100.707 E.44137
G1 X142.753 Y100.707 E.01688
M73 P4 R21
G1 X152.211 Y110.165 E.42114
G1 X151.756 Y109.878 E.01694
G1 X151.227 Y109.461 E.02121
G1 X151.017 Y109.339 E.00765
G1 X150.793 Y109.283 E.00727
G1 X142.218 Y100.707 E.38184
G1 X141.682 Y100.707 E.01688
G1 X150.248 Y109.274 E.38144
G1 X149.713 Y109.274 E.01684
G1 X141.147 Y100.707 E.38144
G1 X140.611 Y100.707 E.01688
G1 X149.177 Y109.274 E.38144
G1 X148.642 Y109.274 E.01684
G1 X140.076 Y100.707 E.38144
G1 X139.54 Y100.707 E.01688
G1 X148.106 Y109.274 E.38144
G1 X147.571 Y109.274 E.01684
M73 P4 R20
G1 X139.005 Y100.707 E.38144
G1 X138.469 Y100.707 E.01688
G1 X147.035 Y109.274 E.38144
G1 X146.5 Y109.274 E.01684
G1 X137.934 Y100.707 E.38144
G1 X137.398 Y100.707 E.01688
G1 X145.964 Y109.274 E.38144
G1 X145.429 Y109.274 E.01684
G1 X136.863 Y100.707 E.38144
G1 X136.327 Y100.707 E.01688
G1 X144.893 Y109.274 E.38144
G1 X144.358 Y109.274 E.01684
G1 X135.792 Y100.707 E.38144
G1 X135.256 Y100.707 E.01688
G1 X143.822 Y109.274 E.38144
G1 X143.287 Y109.274 E.01684
G1 X134.721 Y100.707 E.38144
G1 X134.185 Y100.707 E.01688
G1 X142.751 Y109.274 E.38144
G1 X142.216 Y109.274 E.01684
G1 X133.65 Y100.707 E.38144
G1 X133.114 Y100.707 E.01688
G1 X141.68 Y109.274 E.38144
G1 X141.145 Y109.274 E.01684
G1 X132.579 Y100.707 E.38144
G1 X132.043 Y100.707 E.01688
M73 P5 R20
M73 Q5 S21
G1 X140.609 Y109.274 E.38144
G1 X140.074 Y109.274 E.01684
G1 X131.508 Y100.707 E.38144
G1 X130.972 Y100.707 E.01688
G1 X139.538 Y109.274 E.38144
G1 X139.003 Y109.274 E.01684
G1 X130.437 Y100.707 E.38144
G1 X129.901 Y100.707 E.01688
G1 X138.467 Y109.274 E.38144
